Gruvbox-Plus-Dark/actions/24/zoom-original.svg

<svg width="24" height="24" version="1.1" viewBox="0 0 24 24" xmlns="http://www.w3.org/2000/svg">
  <defs>
    <style type="text/css">.ColorScheme-Text { color:#ebdbb2; } .ColorScheme-Highlight { color:#458588; }</style>
  </defs>
  <path class="ColorScheme-Text" transform="translate(4 4)" d="m3 2c-0.554 0-1 0.446-1 1v10c0 0.554 0.446 1 1 1h10c0.554 0 1-0.446 1-1v-10c0-0.554-0.446-1-1-1h-10zm4 3h2v6h-2v-4h-1v-1s1 0 1-1z" fill="currentColor"/>
</svg>

<svg xmlns="http://www.w3.org/2000/svg" width="24" height="24" viewBox="0 0 24 24">
 <defs>
  <style id="current-color-scheme" type="text/css">
   .ColorScheme-Text { color:#ebdbb2; } .ColorScheme-Highlight { color:#458588; }
  </style>
 </defs>
 <path style="fill:currentColor" class="ColorScheme-Text" d="M 3 2 C 2.446 2 2 2.446 2 3 L 2 13 C 2 13.554 2.446 14 3 14 L 13 14 C 13.554 14 14 13.554 14 13 L 14 3 C 14 2.446 13.554 2 13 2 L 3 2 z M 7 5 L 9 5 L 9 11 L 7 11 L 7 7 L 6 7 L 6 6 C 6 6 7 6 7 5 z" transform="translate(4 4)"/>
</svg>
